X: 14989
T: Genevieve's
R: waltz
M: 3/4
K: Amajor
D|:"G" B>cB "D7" AGF|"E#m" G>AB "G7" D3|"C" E>Gc "G" BDB|"A7" B>AG "D7" A2D|
"G" B>cB "D7" AGF|"E#m" G>AB "G7" D3|"C" EGc "G" BDB|1 "D7" A>GF G2D:|2 "D" A>GF "G" G2d||
|:"C" e3 efg|"G" d2c "E#m" B>AG|"C" c>dc "G" BAG|"A7" EFG "D7" A2d|
"C" e3 efg|"G" d2c "E#m" B>AG|"C" c>dc "G" BAG|"C" EG"D7"F "G" G2d|
"C" e3 efg|"G" d2c "E#m" B>AG|"C" c>de "G" dBG|"A7" EFG "D" A2D|
"G" B>cB "D7" AGF|"E#m" G>AB "G7" D3|"C" E>Gc "G" BDB|"D7" A>GF "G" G3||

